X: 0771
T: MRS. McLEOD'S REEL
B: Oliver Ditson "The Boston Collection of Instrumental Music" 1910 p.77 #1
F: http://conquest.imslp.info/files/imglnks/usimg/8/8f/IMSLP175643-PMLP309456-bostoncollection00bost_bw.pdf
%: 2012 John Chambers <jc:trillian.mit.edu>
M: 4/4
L: 1/8
K: A
c2 |\
A2ag fefa | c2c>d c2c>B | A2ag fefa | B2B>c BdcB |\
A2ag fefa | c2c>d c2ce | f2fe fefg | afec B2 ||
c2 |\
A2cA eccf | c2c>B c2ca | A2cA eccf | B2B>A B2Bc |\
A2cA eccf | c2cB c2ce | fgfe f2 ef/g/ | afec B2 |]

%%sep 1 1 500
%%sep 1 1 500
